static/img/cam-server/ico-content-full.svg

<svg width="20" height="20" viewBox="0 0 20 20" fill="none" xmlns="http://www.w3.org/2000/svg">
<path d="M6 2.5H3C2.17157 2.5 1.5 3.17157 1.5 4V7M14 2.5H17C17.8284 2.5 18.5 3.17157 18.5 4V7M18.5 13V16C18.5 16.8284 17.8284 17.5 17 17.5H14M6 17.5H3C2.17157 17.5 1.5 16.8284 1.5 16V13" stroke="currentColor"/>
<rect x="4.5" y="5.5" width="11" height="9" stroke="currentColor"/>
</svg>

<svg xmlns="http://www.w3.org/2000/svg" width="20" height="20" fill="none" viewBox="0 0 20 20"><path stroke="currentColor" d="M6 2.5H3A1.5 1.5 0 0 0 1.5 4v3M14 2.5h3A1.5 1.5 0 0 1 18.5 4v3m0 6v3a1.5 1.5 0 0 1-1.5 1.5h-3m-8 0H3A1.5 1.5 0 0 1 1.5 16v-3M4.5 5.5h11v9h-11z"/></svg>
